X:15
T:Boer en Boerinneke
%%staffsep 25
C:Traditioneel
O:Hoogstraten (Vlaanderen)
Z:Bert Van Vreckem <http://flanders.blackmill.net/music/>
M:C|
K:G
P:A
DG|B2 B2 (BA) GA|G4 D2 DD|E2 E2 C2 E2|(D4 D) z DG |
w: Zie-hier zijn de lus-_ti-ge boer-kens, ja, ja, lus-tig dat wij zijn._ En de
B2 B2 (BA) (GB)|A2 A2 E2 EE|F2 F2 E2 F2|(G4 G) z (Bc)|
w: vro-lij-ke_ boe-_rin-ne-kens, ja, ja, vro-lijk dat zijn wij._  En_
d2 (dc) B2 (AB)|(cd) (cB) A2d2|d2d2c2c2|(B4B) z (GA) |
w: dat het_ nu re-_gent_ of_ waait, toch zijn we goed-ge-luimd._ En_
c2 (cB) A2 (GA)|Bc BA G2 D2|E2E2F2F2| (G4G)z z2 ||
w: of de_ zo- mer_ in de win-ter draait, we zijn steeds op-ge-ruimd._
P:B
K:C
E2 EF G2 GG|c2 BA BBB z|d2 (dc) B2 BB |A2A2G4|
w: Een lus-tig boer-ke, een la-chend boe-rin-ne-ke, wel dat_ is nu wat het moet zijn.
E2 EF G2 GG|c2 BA BBB z|d2 DE (dc) (BA)|G2G2G4|
w: Een ploe-gend boer-ken, een mel-kend boe-rin-ne-ke, o, dat is toch_ zo_ lief en fijn.
D2 DE F2 FF |E2 EF GGG z|B2 BB B2 A2|A2 G2 G4 |
w: Een zaai-end boer-ke, een lap-pend boe-rin-ne-ke, maar is dat ook niet net en fijn?
F2 FE D2 DD|B2 BA GGG z|d2 (dc) B2 BB |A2A2G4|
w: Een maai-end boer-ke, een oog-stend boe-rin-ne-ke, wel, kan_ er nog iets be-ters zijn?
E2 EF G2 GG|c2 BA BBB z|d2de (dc) Bd|cc c2 cz |]
w: Een lus-tig boer-ke, een la-chend boe-rin-ne-ke, zou er wel ie-_mand ge-luk-ki-ger zijn?

